src/48/overlays/folder-recent.svg

<?xml version="1.0" encoding="UTF-8" standalone="no"?>
<!-- Created with Inkscape (http://www.inkscape.org/) -->

<svg
   width="48"
   height="48"
   viewBox="0 0 48 48"
   version="1.1"
   id="svg5"
   inkscape:version="1.2.2 (b0a8486541, 2022-12-01)"
   sodipodi:docname="folder-recent.svg"
   xml:space="preserve"
   xmlns:inkscape="http://www.inkscape.org/namespaces/inkscape"
   xmlns:sodipodi="http://sodipodi.sourceforge.net/DTD/sodipodi-0.dtd"
   xmlns:xlink="http://www.w3.org/1999/xlink"
   xmlns="http://www.w3.org/2000/svg"
   xmlns:svg="http://www.w3.org/2000/svg"><sodipodi:namedview
     id="namedview7"
     pagecolor="#ffffff"
     bordercolor="#000000"
     borderopacity="0.25"
     inkscape:showpageshadow="2"
     inkscape:pageopacity="0.0"
     inkscape:pagecheckerboard="false"
     inkscape:deskcolor="#d1d1d1"
     inkscape:document-units="px"
     showgrid="true"
     inkscape:zoom="16.391695"
     inkscape:cx="13.78747"
     inkscape:cy="38.769633"
     inkscape:window-width="1192"
     inkscape:window-height="747"
     inkscape:window-x="0"
     inkscape:window-y="22"
     inkscape:window-maximized="0"
     inkscape:current-layer="svg5"><inkscape:grid
       type="xygrid"
       id="grid9"
       originx="0"
       originy="0"
       empspacing="2"
       spacingx="0.5"
       spacingy="0.5" /></sodipodi:namedview><defs
     id="defs2"><linearGradient
       inkscape:collect="always"
       id="linearGradient161834"><stop
         style="stop-color:#fafaf5;stop-opacity:1;"
         offset="0"
         id="stop161830" /><stop
         style="stop-color:#e5e7d0;stop-opacity:1;"
         offset="1"
         id="stop161832" /></linearGradient><linearGradient
       inkscape:collect="always"
       id="linearGradient160134"><stop
         style="stop-color:#ffffff;stop-opacity:1"
         offset="0"
         id="stop160130" /><stop
         style="stop-color:#000000;stop-opacity:1;"
         offset="1"
         id="stop160132" /></linearGradient><linearGradient
       inkscape:collect="always"
       xlink:href="#linearGradient160134"
       id="linearGradient160136"
       x1="2.2489581"
       y1="5.4239578"
       x2="3.3072915"
       y2="6.4822912"
       gradientUnits="userSpaceOnUse" /><radialGradient
       inkscape:collect="always"
       xlink:href="#linearGradient161834"
       id="radialGradient161836"
       cx="2.3812499"
       cy="5.4239578"
       fx="2.3812499"
       fy="5.4239578"
       r="1.5875"
       gradientUnits="userSpaceOnUse" /><filter
       inkscape:collect="always"
       style="color-interpolation-filters:sRGB"
       id="filter162713"
       x="-0.37745541"
       y="-0.37745541"
       width="1.7549108"
       height="1.7549108"><feGaussianBlur
         inkscape:collect="always"
         stdDeviation="0.44069203"
         id="feGaussianBlur162711" /></filter></defs><g
     id="g173225"
     transform="matrix(3.7795276,0,0,3.7795276,-40.556231,29.845676)"
     inkscape:label="clock"><g
       id="layer2-0"
       inkscape:label="Outlines"
       style="display:inline;stroke-width:0.631452"
       transform="matrix(1.5988978,0,0,1.5685499,11.688735,-8.3404616)"><circle
         style="opacity:1;fill:#000000;fill-opacity:1;stroke:#000000;stroke-width:0.28152;stroke-linejoin:bevel;stroke-miterlimit:7.6;filter:url(#filter162713)"
         id="circle162709"
         cx="3.4395831"
         cy="6.2177081"
         r="1.5875"
         transform="matrix(0.73733514,0,0,0.47766186,0.54653661,3.7005265)" /><circle
         style="opacity:1;fill:url(#radialGradient161836);fill-opacity:1;stroke:none;stroke-width:0.167072;stroke-linejoin:bevel;stroke-miterlimit:7.6"
         id="circle157148"
         cx="2.7781248"
         cy="5.9531245"
         r="1.5875" /><circle
         style="opacity:1;fill:none;stroke:#000000;stroke-width:0.167072;stroke-linejoin:bevel;stroke-miterlimit:7.6"
         id="path157146"
         cx="2.778125"
         cy="5.953125"
         r="1.5875" /><path
         style="opacity:1;fill:#010101;fill-opacity:1;stroke:#000000;stroke-width:0.0334144;stroke-linejoin:miter;stroke-miterlimit:9.4;stroke-dasharray:none;stroke-opacity:1"
         d="M 2.6458332,6.0854164 2.7781249,6.217708 2.9104165,6.0854164 2.7781249,5.9531247 2.9104165,5.6885414 2.7781249,4.7624998 2.6458332,5.6885414 2.7781249,5.9531247 Z"
         id="path157830"
         sodipodi:nodetypes="ccccccccc" /><path
         style="opacity:1;fill:#010101;fill-opacity:1;stroke:#000000;stroke-width:0.0334144;stroke-linejoin:miter;stroke-miterlimit:10.2;stroke-dasharray:none;stroke-opacity:1"
         d="M 2.5135415,5.9531247 2.6458332,6.0854164 2.7781249,5.9531248 3.0427082,6.0854164 3.7041665,5.9531247 3.0427082,5.8208331 2.7781249,5.9531248 2.6458332,5.820833 2.5135415,5.9531247"
         id="path158210"
         sodipodi:nodetypes="ccccccccc" /><ellipse
         style="opacity:0.485793;fill:none;fill-opacity:1;stroke:url(#linearGradient160136);stroke-width:0.250608;stroke-linejoin:miter;stroke-miterlimit:10.2;stroke-dasharray:none;stroke-opacity:1"
         id="path160097"
         cx="2.778125"
         cy="5.953125"
         rx="1.4552084"
         ry="1.4552085" /></g></g></svg>

<?xml version="1.0" encoding="UTF-8" standalone="no"?>
<svg
   xml:space="preserve"
   width="48"
   height="48"
   version="1.1"
   id="svg10793"
   sodipodi:docname="folder-recent.svg"
   inkscape:version="1.2.2 (b0a8486541, 2022-12-01)"
   xmlns:inkscape="http://www.inkscape.org/namespaces/inkscape"
   xmlns:sodipodi="http://sodipodi.sourceforge.net/DTD/sodipodi-0.dtd"
   xmlns:xlink="http://www.w3.org/1999/xlink"
   xmlns="http://www.w3.org/2000/svg"
   xmlns:svg="http://www.w3.org/2000/svg"><sodipodi:namedview
     id="namedview10795"
     pagecolor="#ffffff"
     bordercolor="#000000"
     borderopacity="0.25"
     inkscape:showpageshadow="2"
     inkscape:pageopacity="0.0"
     inkscape:pagecheckerboard="0"
     inkscape:deskcolor="#d1d1d1"
     showgrid="true"
     inkscape:zoom="16.75"
     inkscape:cx="24.029851"
     inkscape:cy="24.029851"
     inkscape:window-width="1920"
     inkscape:window-height="1037"
     inkscape:window-x="0"
     inkscape:window-y="21"
     inkscape:window-maximized="1"
     inkscape:current-layer="svg10793"><inkscape:grid
       type="xygrid"
       id="grid10914"
       spacingx="0.5"
       spacingy="0.5"
       empspacing="2" /></sodipodi:namedview><circle
     cx="3.44"
     cy="6.218"
     r="1.587"
     style="display:inline;stroke-width:.28152;opacity:1;fill:#000;fill-opacity:1;stroke:#000;stroke-linejoin:bevel;stroke-miterlimit:7.6;filter:url(#a)"
     transform="matrix(4.45577 0 0 2.83176 2.924 20.26)"
     id="circle10764" /><circle
     cx="2.778"
     cy="5.953"
     r="1.587"
     style="display:inline;stroke-width:.167072;opacity:1;fill:url(#b);fill-opacity:1;stroke:none;stroke-linejoin:bevel;stroke-miterlimit:7.6"
     transform="matrix(6.04308 0 0 5.92838 -.378 -1.677)"
     id="circle10766" /><path
     d="m2.646 6.085.132.133.132-.133-.132-.132.132-.264-.132-.927-.132.927.132.264Z"
     style="display:inline;stroke-width:.0334144;opacity:1;fill:#010101;fill-opacity:1;stroke:#000;stroke-linejoin:miter;stroke-miterlimit:9.4;stroke-dasharray:none;stroke-opacity:1"
     transform="matrix(6.04308 0 0 5.92838 -.378 -1.677)"
     id="path10770" /><path
     d="m2.514 5.953.132.132.132-.132.265.132.661-.132-.661-.132-.265.132-.132-.132-.132.132"
     style="display:inline;stroke-width:.0334144;opacity:1;fill:#010101;fill-opacity:1;stroke:#000;stroke-linejoin:miter;stroke-miterlimit:10.2;stroke-dasharray:none;stroke-opacity:1"
     transform="matrix(6.04308 0 0 5.92838 -.378 -1.677)"
     id="path10772" /><ellipse
     cx="16.5"
     cy="33.5"
     style="display:inline;opacity:0.485793;fill:none;fill-opacity:1;stroke:url(#c);stroke-width:1.50002;stroke-linejoin:miter;stroke-miterlimit:10.2;stroke-dasharray:none;stroke-opacity:1"
     id="circle10774"
     rx="9.2499943"
     ry="9.5000019" /><defs
     id="defs10791"><linearGradient
       id="e"><stop
         offset="0"
         style="stop-color:#fafaf5;stop-opacity:1"
         id="stop10776" /><stop
         offset="1"
         style="stop-color:#e5e7d0;stop-opacity:1"
         id="stop10778" /></linearGradient><linearGradient
       id="d"><stop
         offset="0"
         style="stop-color:#fff;stop-opacity:1"
         id="stop10781" /><stop
         offset="1"
         style="stop-color:#000;stop-opacity:1"
         id="stop10783" /></linearGradient><linearGradient
       xlink:href="#d"
       id="c"
       x1="2.249"
       x2="3.307"
       y1="5.424"
       y2="6.482"
       gradientUnits="userSpaceOnUse"
       gradientTransform="matrix(6.357384,0,0,6.5292105,-1.1608131,-5.3683926)" /><radialGradient
       xlink:href="#e"
       id="b"
       cx="2.381"
       cy="5.424"
       r="1.587"
       fx="2.381"
       fy="5.424"
       gradientUnits="userSpaceOnUse" /><filter
       id="a"
       width="1.7556144"
       height="1.7556144"
       x="-0.37780719"
       y="-0.37780719"
       style="color-interpolation-filters:sRGB"><feGaussianBlur
         stdDeviation=".441"
         id="feGaussianBlur10788" /></filter></defs><ellipse
     cx="16.5"
     cy="33.5"
     style="display:inline;opacity:1;fill:none;stroke:#000000;stroke-width:1;stroke-linejoin:bevel;stroke-miterlimit:7.6"
     id="circle10768"
     rx="10"
     ry="9.999999" /></svg>
